public/svgs/duotone/sim-card.svg

<svg xmlns="http://www.w3.org/2000/svg" viewBox="0 0 384 512"><!-- Font Awesome Pro 6.0.0-alpha2 by @fontawesome - https://fontawesome.com License - https://fontawesome.com/license (Commercial License) --><defs><style>.fa-secondary{opacity:.4}</style></defs><path d="M256 0H64C28.75 0 0 28.75 0 64V448C0 483.25 28.75 512 64 512H320C355.25 512 384 483.25 384 448V128L256 0ZM320 416C320 433.674 305.674 448 288 448H96C78.326 448 64 433.674 64 416V224C64 206.326 78.326 192 96 192H288C305.674 192 320 206.326 320 224V416Z" class="fa-secondary"/><path d="M64 416C64 433.75 78.25 448 96 448H128V384H64V416ZM128 192H96C78.25 192 64 206.25 64 224V256H128V192ZM224 192H160V256H224V192ZM160 448H224V384H160V448ZM288 192H256V256H320V224C320 206.25 305.75 192 288 192ZM64 352H320V288H64V352ZM256 448H288C305.75 448 320 433.75 320 416V384H256V448Z" class="fa-primary"/></svg>

<svg xmlns="http://www.w3.org/2000/svg" viewBox="0 0 384 512"><!--! Font Awesome Pro 6.5.1 by @fontawesome - https://fontawesome.com License - https://fontawesome.com/license (Commercial License) Copyright 2023 Fonticons, Inc. --><defs><style>.fa-secondary{opacity:.4}</style></defs><path class="fa-secondary" d="M64 0H242.7c17 0 33.3 6.7 45.3 18.7L365.3 96c12 12 18.7 28.3 18.7 45.3V448c0 35.3-28.7 64-64 64H64c-35.3 0-64-28.7-64-64V64C0 28.7 28.7 0 64 0zM96 192c-17.7 0-32 14.3-32 32V416c0 17.7 14.3 32 32 32H288c17.7 0 32-14.3 32-32V224c0-17.7-14.3-32-32-32H96z"/><path class="fa-primary" d="M128 192H96c-17.7 0-32 14.3-32 32v32h64V192zM64 288v64h80 96 80V288H240 144 64zm256-32V224c0-17.7-14.3-32-32-32H256v64h64zm-96-64H160v64h64V192zm96 192H256v64h32c17.7 0 32-14.3 32-32V384zm-96 64V384H160v64h64zm-96 0V384H64v32c0 17.7 14.3 32 32 32h32z"/></svg>
